svg/helm.svg

<?xml version="1.0" encoding="UTF-8"?>
<svg xmlns="http://www.w3.org/2000/svg" xmlns:xlink="http://www.w3.org/1999/xlink" width="32" height="32" viewBox="0 0 32 32">
<path fill-rule="nonzero" fill="rgb(5.882353%, 8.627451%, 53.72549%)" fill-opacity="1" d="M 8.738281 7.753906 C 8.699219 7.714844 8.660156 7.679688 8.621094 7.644531 C 7.816406 6.867188 7.191406 5.96875 6.8125 4.910156 C 6.707031 4.613281 6.625 4.308594 6.640625 3.992188 C 6.640625 3.960938 6.640625 3.929688 6.644531 3.898438 C 6.671875 3.488281 6.949219 3.277344 7.351562 3.375 C 7.480469 3.410156 7.601562 3.457031 7.71875 3.515625 C 8.160156 3.738281 8.519531 4.066406 8.851562 4.421875 C 9.4375 5.046875 9.90625 5.773438 10.238281 6.5625 C 10.246094 6.582031 10.253906 6.601562 10.265625 6.617188 C 10.277344 6.628906 10.289062 6.644531 10.300781 6.652344 C 11.875 5.707031 13.652344 5.160156 15.484375 5.058594 C 15.476562 5.011719 15.46875 4.964844 15.457031 4.917969 C 15.269531 4.144531 15.214844 3.347656 15.289062 2.554688 C 15.320312 2.078125 15.414062 1.609375 15.570312 1.160156 C 15.648438 0.925781 15.765625 0.707031 15.921875 0.511719 C 15.980469 0.441406 16.050781 0.378906 16.125 0.328125 C 16.28125 0.21875 16.484375 0.21875 16.640625 0.328125 C 16.800781 0.433594 16.929688 0.582031 17.011719 0.757812 C 17.171875 1.050781 17.285156 1.367188 17.347656 1.695312 C 17.5 2.390625 17.542969 3.101562 17.484375 3.808594 C 17.457031 4.242188 17.382812 4.667969 17.261719 5.082031 C 17.71875 5.167969 18.171875 5.230469 18.617188 5.335938 C 19.507812 5.542969 20.371094 5.855469 21.1875 6.269531 C 21.59375 6.472656 21.980469 6.714844 22.386719 6.945312 C 22.398438 6.917969 22.417969 6.882812 22.433594 6.847656 C 22.855469 5.679688 23.582031 4.648438 24.539062 3.855469 C 24.761719 3.664062 25.015625 3.515625 25.292969 3.414062 C 25.371094 3.386719 25.449219 3.371094 25.53125 3.359375 C 25.929688 3.316406 26.097656 3.566406 26.128906 3.867188 C 26.152344 4.089844 26.132812 4.3125 26.078125 4.53125 C 25.933594 5.089844 25.699219 5.625 25.390625 6.113281 C 24.957031 6.8125 24.441406 7.445312 23.785156 7.957031 C 23.761719 7.976562 23.738281 7.996094 23.71875 8.019531 C 24.359375 8.613281 24.929688 9.273438 25.417969 9.996094 C 25.382812 10.003906 25.347656 10.011719 25.3125 10.015625 C 24.632812 10.015625 23.953125 10.015625 23.277344 10.019531 C 23.195312 10.015625 23.121094 9.976562 23.074219 9.910156 C 21.59375 8.296875 19.597656 7.242188 17.429688 6.929688 C 16.789062 6.835938 16.140625 6.8125 15.492188 6.855469 C 13.5625 6.972656 11.71875 7.683594 10.210938 8.890625 C 9.820312 9.199219 9.457031 9.539062 9.125 9.90625 C 9.0625 9.980469 8.972656 10.023438 8.875 10.019531 C 8.230469 10.015625 7.582031 10.015625 6.933594 10.015625 L 6.796875 10.015625 C 6.835938 9.863281 7.234375 9.316406 7.683594 8.828125 C 8.019531 8.464844 8.375 8.121094 8.738281 7.753906 M 25.25 22.265625 C 24.800781 22.898438 24.285156 23.480469 23.714844 24.003906 L 23.835938 24.105469 C 24.824219 24.914062 25.570312 25.980469 25.992188 27.183594 C 26.101562 27.480469 26.152344 27.792969 26.132812 28.109375 C 26.125 28.1875 26.109375 28.269531 26.082031 28.34375 C 26.015625 28.570312 25.792969 28.707031 25.5625 28.667969 C 25.410156 28.648438 25.265625 28.605469 25.128906 28.539062 C 24.921875 28.433594 24.722656 28.308594 24.539062 28.164062 C 23.578125 27.378906 22.851562 26.34375 22.433594 25.175781 C 22.421875 25.144531 22.40625 25.109375 22.386719 25.054688 C 21.875 25.394531 21.339844 25.695312 20.785156 25.953125 C 19.671875 26.460938 18.480469 26.785156 17.265625 26.917969 L 17.292969 27.058594 C 17.488281 27.820312 17.554688 28.609375 17.484375 29.390625 C 17.460938 29.882812 17.367188 30.367188 17.203125 30.828125 C 17.125 31.019531 17.035156 31.207031 16.933594 31.386719 C 16.894531 31.457031 16.84375 31.523438 16.785156 31.578125 C 16.53125 31.839844 16.226562 31.84375 15.976562 31.574219 C 15.878906 31.464844 15.796875 31.34375 15.726562 31.214844 C 15.53125 30.84375 15.429688 30.441406 15.359375 30.03125 C 15.265625 29.472656 15.234375 28.90625 15.269531 28.339844 C 15.289062 27.925781 15.351562 27.511719 15.457031 27.113281 L 15.480469 27.007812 L 15.46875 26.960938 C 13.636719 26.855469 11.859375 26.308594 10.285156 25.363281 C 10.261719 25.417969 10.238281 25.46875 10.214844 25.519531 C 9.773438 26.546875 9.097656 27.453125 8.238281 28.167969 C 8.011719 28.363281 7.75 28.515625 7.46875 28.613281 C 7.335938 28.667969 7.191406 28.683594 7.050781 28.660156 C 6.890625 28.632812 6.757812 28.523438 6.703125 28.371094 C 6.613281 28.152344 6.628906 27.925781 6.660156 27.699219 C 6.710938 27.382812 6.804688 27.078125 6.9375 26.785156 C 7.328125 25.871094 7.90625 25.050781 8.632812 24.371094 C 8.664062 24.34375 8.691406 24.316406 8.722656 24.285156 L 8.746094 24.246094 C 8.0625 23.652344 7.449219 22.980469 6.921875 22.242188 C 6.972656 22.234375 7.019531 22.230469 7.070312 22.230469 C 7.742188 22.226562 8.414062 22.230469 9.089844 22.226562 C 9.179688 22.222656 9.265625 22.261719 9.324219 22.332031 C 10.058594 23.082031 10.910156 23.707031 11.847656 24.179688 C 12.839844 24.691406 13.917969 25.011719 15.027344 25.125 C 18.042969 25.417969 20.636719 24.503906 22.8125 22.382812 C 22.910156 22.277344 23.050781 22.21875 23.195312 22.226562 C 23.820312 22.234375 24.449219 22.226562 25.078125 22.226562 L 25.238281 22.226562 Z M 22.445312 12.65625 C 22.625 12.65625 22.796875 12.667969 22.964844 12.652344 C 23.15625 12.636719 23.296875 12.703125 23.433594 12.832031 C 24.242188 13.578125 25.058594 14.3125 25.871094 15.050781 L 26.007812 15.167969 L 26.144531 15.050781 C 26.980469 14.289062 27.820312 13.523438 28.65625 12.757812 C 28.726562 12.6875 28.824219 12.648438 28.925781 12.65625 C 29.132812 12.664062 29.339844 12.65625 29.554688 12.65625 L 29.554688 19.398438 C 29.445312 19.433594 27.964844 19.4375 27.785156 19.402344 L 27.785156 15.988281 L 27.753906 15.972656 C 27.175781 16.5 26.597656 17.023438 26.007812 17.5625 C 25.417969 17.03125 24.835938 16.503906 24.25 15.980469 L 24.21875 15.992188 C 24.214844 16.277344 24.21875 16.5625 24.21875 16.847656 L 24.21875 19.417969 L 22.460938 19.417969 C 22.429688 19.304688 22.414062 13.039062 22.445312 12.65625 M 6.25 12.664062 L 7.992188 12.664062 C 8.027344 12.777344 8.035156 19.253906 8 19.417969 L 6.253906 19.417969 C 6.242188 18.988281 6.25 18.5625 6.25 18.132812 C 6.246094 17.710938 6.25 17.285156 6.25 16.851562 L 4.085938 16.851562 L 4.085938 19.394531 C 3.953125 19.433594 2.464844 19.4375 2.316406 19.402344 L 2.316406 12.664062 L 4.078125 12.664062 L 4.078125 15.046875 C 4.207031 15.082031 6.058594 15.089844 6.246094 15.054688 L 6.25 14.472656 Z M 10.085938 19.414062 L 10.085938 12.683594 C 10.1875 12.652344 14.023438 12.636719 14.273438 12.671875 L 14.273438 14.105469 C 14.21875 14.109375 14.160156 14.117188 14.101562 14.117188 L 11.863281 14.117188 L 11.863281 15.234375 L 13.996094 15.234375 L 13.996094 16.71875 L 11.882812 16.71875 C 11.847656 16.84375 11.835938 17.730469 11.867188 17.976562 C 11.917969 17.980469 11.976562 17.988281 12.035156 17.988281 L 14.273438 17.988281 L 14.273438 19.414062 Z M 16.273438 19.417969 C 16.242188 19.238281 16.25 12.789062 16.28125 12.664062 L 18.019531 12.664062 L 18.019531 17.640625 C 18.09375 17.644531 18.152344 17.652344 18.210938 17.652344 L 20.460938 17.652344 L 20.460938 19.417969 Z M 16.273438 19.417969 "/>
</svg>

<svg role="img" viewBox="0 0 32 32" height="32" width="32" xmlns="http://www.w3.org/2000/svg"><path d="M8.738 7.754c-.039-.04-.078-.074-.117-.11-.805-.777-1.43-1.675-1.809-2.734-.105-.297-.187-.601-.171-.918 0-.031 0-.062.004-.094.027-.41.304-.62.707-.523.128.035.25.082.367.14.441.223.8.551 1.133.907a7.23 7.23 0 0 1 1.386 2.14c.008.02.016.04.028.055.011.012.023.028.035.035a11.277 11.277 0 0 1 5.183-1.593 1.4 1.4 0 0 0-.027-.141 7.179 7.179 0 0 1-.168-2.363c.031-.477.125-.946.281-1.395.078-.234.196-.453.352-.648.058-.07.129-.133.203-.184.156-.11.36-.11.516 0 .16.106.289.254.37.43.16.293.274.61.337.937a7.12 7.12 0 0 1 .136 2.114 5.824 5.824 0 0 1-.222 1.273c.457.086.91.148 1.355.254.89.207 1.754.52 2.57.934.407.203.793.445 1.2.675.011-.027.031-.062.047-.097a6.95 6.95 0 0 1 2.105-2.993c.223-.19.477-.34.754-.44a1.24 1.24 0 0 1 .238-.056c.399-.043.567.207.598.508a1.93 1.93 0 0 1-.05.664 5.59 5.59 0 0 1-.688 1.582c-.434.7-.95 1.332-1.606 1.844a.503.503 0 0 0-.066.063c.64.593 1.21 1.253 1.699 1.976a.97.97 0 0 1-.105.02c-.68 0-1.36 0-2.036.004a.26.26 0 0 1-.203-.11 9.507 9.507 0 0 0-5.644-2.98 9.178 9.178 0 0 0-1.938-.075 9.356 9.356 0 0 0-5.281 2.036 8.92 8.92 0 0 0-1.086 1.015.31.31 0 0 1-.25.114c-.645-.004-1.293-.004-1.941-.004h-.137c.039-.153.437-.7.887-1.188.336-.363.691-.707 1.054-1.074M25.25 22.266c-.45.632-.965 1.214-1.535 1.738l.12.101a6.95 6.95 0 0 1 2.157 3.079c.11.296.16.609.14.925a.966.966 0 0 1-.05.235.459.459 0 0 1-.52.324 1.39 1.39 0 0 1-.433-.129 3.584 3.584 0 0 1-.59-.375 6.83 6.83 0 0 1-2.105-2.988c-.012-.031-.028-.067-.047-.121-.512.34-1.047.64-1.602.898a11.5 11.5 0 0 1-3.52.965l.028.14c.195.762.262 1.551.191 2.333a4.993 4.993 0 0 1-.28 1.437 4.899 4.899 0 0 1-.27.559.787.787 0 0 1-.149.191c-.254.262-.558.266-.808-.004-.098-.11-.18-.23-.25-.36-.196-.37-.297-.773-.368-1.183a7.43 7.43 0 0 1-.09-1.691c.02-.414.083-.828.188-1.227l.023-.105-.011-.047a11.328 11.328 0 0 1-5.184-1.598c-.023.055-.047.106-.07.157a7.073 7.073 0 0 1-1.977 2.648 2.375 2.375 0 0 1-.77.445.766.766 0 0 1-.417.047.447.447 0 0 1-.348-.289c-.09-.219-.074-.445-.043-.672.05-.316.145-.62.277-.914a7.158 7.158 0 0 1 1.696-2.414c.031-.027.058-.055.09-.086l.023-.039a11.54 11.54 0 0 1-1.824-2.004.95.95 0 0 1 .148-.012c.672-.003 1.344 0 2.02-.003a.289.289 0 0 1 .234.105 9.549 9.549 0 0 0 2.524 1.848 8.91 8.91 0 0 0 3.18.945c3.015.293 5.609-.621 7.784-2.742a.488.488 0 0 1 .383-.156c.625.007 1.254 0 1.883 0h.16Zm-2.805-9.61c.18 0 .352.012.52-.004.191-.015.332.051.469.18.808.746 1.625 1.48 2.437 2.219l.137.117.137-.117c.835-.762 1.675-1.528 2.511-2.293.07-.07.168-.11.27-.102.207.008.414 0 .629 0v6.742c-.11.036-1.59.04-1.77.004v-3.414l-.031-.015c-.578.527-1.156 1.05-1.746 1.59-.59-.532-1.172-1.06-1.758-1.583l-.031.012c-.004.285 0 .57 0 .856v2.57H22.46c-.031-.113-.047-6.379-.016-6.762m-16.195.008h1.742c.035.113.043 6.59.008 6.754H6.254c-.012-.43-.004-.855-.004-1.285-.004-.422 0-.848 0-1.281H4.086v2.543c-.133.039-1.621.043-1.77.007v-6.738h1.762v2.383c.129.035 1.98.043 2.168.008l.004-.582Zm3.836 6.75v-6.73c.101-.032 3.937-.047 4.187-.012v1.433c-.054.004-.113.012-.171.012h-2.239v1.117h2.133v1.485h-2.113c-.035.125-.047 1.011-.016 1.258.051.003.11.011.168.011h2.238v1.426Zm6.187.004c-.03-.18-.023-6.629.008-6.754h1.739v4.977c.074.004.132.011.19.011h2.25v1.766Zm0 0" fill="rgb(5.882353%, 8.627451%, 53.72549%)"/></svg>
